X: 92
M: C
L: 1/8
K: D
d>efg a2af | g>fga g2fe | d>e"a."fg a2ag | f2d2 d2fg |
a2fd g2fe | d2B2 g2fe | d2AF ABAG | F2D2 D2 |]
P: Var:
"a."f>g |]


